X: 40470
T: Tom's
R: slip jig
M: 9/8
K: Edorian
|:F2d BAG FED|EDE F2E FDB,|F2d BAG FED|EDE F2E D2E:|
|:FEF A2G FED|EDE F2E FDB,|FEF A2G FED|EDE F2E D2E:|

